wp-content/themes/fundawande/assets/menu/contact_menu_icon.svg

<?xml version="1.0" encoding="UTF-8"?>
<svg width="50px" height="50px" viewBox="0 0 50 50" version="1.1" xmlns="http://www.w3.org/2000/svg" xmlns:xlink="http://www.w3.org/1999/xlink">
    <!-- Generator: sketchtool 51.3 (57544) - http://www.bohemiancoding.com/sketch -->
    <title>9DF283C3-F7F0-4202-8178-678F86AB4F5D</title>
    <desc>Created with sketchtool.</desc>
    <defs></defs>
    <g id="5.-Menus-&amp;-Policies" stroke="none" stroke-width="1" fill="none" fill-rule="evenodd">
        <g id="Open-Menu-Coach-Example-[FW2MENU002---Tablet]" transform="translate(-26.000000, -258.000000)">
            <g id="Navbar-Open-Menu" transform="translate(0.000000, -1.000000)">
                <g id="View-Contacts" transform="translate(26.000000, 259.000000)">
                    <g id="Contact-Menu-icon">
                        <circle id="Oval-Copy-3" fill="#F7CE8C" cx="25" cy="25" r="25"></circle>
                        <path d="M36.5,10 L16.5,10 C13.7385763,10 11.5,12.2385763 11.5,15 L11.5,16.25 L10.25,16.25 C9.55964406,16.25 9,16.8096441 9,17.5 C9,18.1903559 9.55964406,18.75 10.25,18.75 L11.5,18.75 L11.5,23.75 L10.25,23.75 C9.55964406,23.75 9,24.3096441 9,25 C9,25.6903559 9.55964406,26.25 10.25,26.25 L11.5,26.25 L11.5,31.25 L10.25,31.25 C9.55964406,31.25 9,31.8096441 9,32.5 C9,33.1903559 9.55964406,33.75 10.25,33.75 L11.5,33.75 L11.5,35 C11.5,37.7614237 13.7385763,40 16.5,40 L36.5,40 C37.8807119,40 39,38.8807119 39,37.5 L39,12.5 C39,11.1192881 37.8807119,10 36.5,10 Z M36.5,37.5 L16.5,37.5 C15.1192881,37.5 14,36.3807119 14,35 L14,33.75 L15.25,33.75 C15.9403559,33.75 16.5,33.1903559 16.5,32.5 C16.5,31.8096441 15.9403559,31.25 15.25,31.25 L14,31.25 L14,26.25 L15.25,26.25 C15.9403559,26.25 16.5,25.6903559 16.5,25 C16.5,24.3096441 15.9403559,23.75 15.25,23.75 L14,23.75 L14,18.75 L15.25,18.75 C15.9403559,18.75 16.5,18.1903559 16.5,17.5 C16.5,16.8096441 15.9403559,16.25 15.25,16.25 L14,16.25 L14,15 C14,13.6192881 15.1192881,12.5 16.5,12.5 L36.5,12.5 L36.5,37.5 Z" id="Shape" fill="#69675B" fill-rule="nonzero"></path>
                        <path d="M20.25,33.75 C20.9403559,33.75 21.5,33.1903559 21.5,32.5 L21.5,31.25 C21.5,28.4885763 23.7385763,26.25 26.5,26.25 C29.2614237,26.25 31.5,28.4885763 31.5,31.25 L31.5,32.5 C31.5,33.1903559 32.0596441,33.75 32.75,33.75 C33.4403559,33.75 34,33.1903559 34,32.5 L34,31.25 C33.9969249,28.5183448 32.5088999,26.0043845 30.115625,24.6875 C32.002414,22.7121846 31.9546808,19.5882222 30.0084221,17.6714747 C28.0621635,15.7547272 24.9378365,15.7547272 22.9915779,17.6714747 C21.0453192,19.5882222 20.997586,22.7121846 22.884375,24.6875 C20.4911001,26.0043845 19.0030751,28.5183448 19,31.25 L19,32.5 C19,33.1903559 19.5596441,33.75 20.25,33.75 Z M24,21.25 C24,19.8692881 25.1192881,18.75 26.5,18.75 C27.8807119,18.75 29,19.8692881 29,21.25 C29,22.6307119 27.8807119,23.75 26.5,23.75 C25.1192881,23.75 24,22.6307119 24,21.25 Z" id="Shape" fill="#69675B" fill-rule="nonzero"></path>
                    </g>
                </g>
            </g>
        </g>
    </g>
</svg>

<svg width="50" height="50" viewBox="0 0 50 50" xmlns="http://www.w3.org/2000/svg"><title>9DF283C3-F7F0-4202-8178-678F86AB4F5D</title><desc>Created with sketchtool.</desc><g transform="translate(0 0)" fill="none"><circle fill="#F7CE8C" cx="25" cy="25" r="25"/><path d="M36.5 10h-20c-2.761 0-5 2.239-5 5v1.25h-1.25c-.69 0-1.25.56-1.25 1.25s.56 1.25 1.25 1.25h1.25v5h-1.25c-.69 0-1.25.56-1.25 1.25s.56 1.25 1.25 1.25h1.25v5h-1.25c-.69 0-1.25.56-1.25 1.25s.56 1.25 1.25 1.25h1.25v1.25c0 2.761 2.239 5 5 5h20c1.381 0 2.5-1.119 2.5-2.5v-25c0-1.381-1.119-2.5-2.5-2.5zm0 27.5h-20c-1.381 0-2.5-1.119-2.5-2.5v-1.25h1.25c.69 0 1.25-.56 1.25-1.25s-.56-1.25-1.25-1.25h-1.25v-5h1.25c.69 0 1.25-.56 1.25-1.25s-.56-1.25-1.25-1.25h-1.25v-5h1.25c.69 0 1.25-.56 1.25-1.25s-.56-1.25-1.25-1.25h-1.25v-1.25c0-1.381 1.119-2.5 2.5-2.5h20v25zM20.25 33.75c.69 0 1.25-.56 1.25-1.25v-1.25c0-2.761 2.239-5 5-5s5 2.239 5 5v1.25c0 .69.56 1.25 1.25 1.25s1.25-.56 1.25-1.25v-1.25c-.003-2.732-1.491-5.246-3.884-6.563 1.887-1.975 1.839-5.099-.107-7.016-1.946-1.917-5.071-1.917-7.017 0-1.946 1.917-1.994 5.041-.107 7.016-2.393 1.317-3.881 3.831-3.884 6.563v1.25c0 .69.56 1.25 1.25 1.25zm3.75-12.5c0-1.381 1.119-2.5 2.5-2.5s2.5 1.119 2.5 2.5-1.119 2.5-2.5 2.5-2.5-1.119-2.5-2.5z" fill="#69675B" fill-rule="nonzero"/></g></svg>
